optimized/24/outline/shopping-bag.svg

<svg xmlns="http://www.w3.org/2000/svg" fill="none" viewBox="0 0 24 24">
  <path stroke-linecap="round" stroke-linejoin="round" d="M15.75 10.5V6C15.75 3.92893 14.0711 2.25 12 2.25C9.92893 2.25 8.25 3.92893 8.25 6V10.5M19.606 8.50723L20.8692 20.5072C20.9391 21.1715 20.4183 21.75 19.7504 21.75H4.24963C3.58172 21.75 3.06089 21.1715 3.13081 20.5072L4.39397 8.50723C4.45424 7.93466 4.93706 7.5 5.51279 7.5H18.4872C19.0629 7.5 19.5458 7.93466 19.606 8.50723ZM8.625 10.5C8.625 10.7071 8.4571 10.875 8.25 10.875C8.04289 10.875 7.875 10.7071 7.875 10.5C7.875 10.2929 8.04289 10.125 8.25 10.125C8.4571 10.125 8.625 10.2929 8.625 10.5ZM16.125 10.5C16.125 10.7071 15.9571 10.875 15.75 10.875C15.5429 10.875 15.375 10.7071 15.375 10.5C15.375 10.2929 15.5429 10.125 15.75 10.125C15.9571 10.125 16.125 10.2929 16.125 10.5Z"/>
</svg>

<svg xmlns="http://www.w3.org/2000/svg" fill="none" viewBox="0 0 24 24" stroke-width="1.5" stroke="currentColor" aria-hidden="true">
  <path stroke-linecap="round" stroke-linejoin="round" d="M15.75 10.5V6a3.75 3.75 0 10-7.5 0v4.5m11.356-1.993l1.263 12c.07.665-.45 1.243-1.119 1.243H4.25a1.125 1.125 0 01-1.12-1.243l1.264-12A1.125 1.125 0 015.513 7.5h12.974c.576 0 1.059.435 1.119 1.007zM8.625 10.5a.375.375 0 11-.75 0 .375.375 0 01.75 0zm7.5 0a.375.375 0 11-.75 0 .375.375 0 01.75 0z"/>
</svg>
